src/apps/tabs/assets/logo.svg

<svg class="logo" width="30" height="30" viewBox="0 0 30 30" xmlns="http://www.w3.org/2000/svg"><g fill="none" fill-rule="evenodd"><circle fill="#DA552F" cx="15" cy="15" r="15"/><path d="M13.944 21v-3.808h2.754c2.55 0 3.944-1.717 3.944-3.757 0-2.057-1.394-3.774-3.944-3.774H11.02V21h2.924zm2.312-6.358h-2.312v-2.43h2.312c.782 0 1.41.44 1.41 1.223 0 .765-.628 1.207-1.41 1.207z" fill="#FFF"/></g></svg>

<svg class="logo" width="30px" height="30px" viewBox="0 0 30 30" version="1.1" xmlns="http://www.w3.org/2000/svg" xmlns:xlink="http://www.w3.org/1999/xlink" xmlns:sketch="http://www.bohemiancoding.com/sketch/ns">
<g id="Page-1" stroke="none" stroke-width="1" fill="none" fill-rule="evenodd" sketch:type="MSPage">
<circle id="Oval-1" fill="#DA552F" sketch:type="MSShapeGroup" cx="15" cy="15" r="15"></circle>
<path d="M13.944,21 L13.944,17.192 L16.698,17.192 C19.248,17.192 20.642,15.475 20.642,13.435 C20.642,11.378 19.248,9.661 16.698,9.661 L11.02,9.661 L11.02,21 L13.944,21 Z M16.256,14.642 L13.944,14.642 L13.944,12.211 L16.256,12.211 C17.038,12.211 17.667,12.653 17.667,13.435 C17.667,14.2 17.038,14.642 16.256,14.642 Z" id="P" fill="#FFFFFF" sketch:type="MSShapeGroup"></path>
</g>
</svg>
